X: 2
T: The Peeler and the Goat
P: piffero primo a0827
O:
F: http://ancients.sudburymuster.org/mus/ssp/pdf/adamsyorkC0.pdf
Z: 2019 John Chambers <jc:trillian.mit.edu>
M: 6/8
L: 1/8
K: Ador
A/B/ |\
c2A {c}B2G | ~A2B c2d | ~e2e d2c | B2G/A/ GAB |\
c2A {c}BAG | ~A2B c2d | ~efg fed | ~e2A A2 :|
|: f |\
g2e c2d | e2f g2(3(e/f/g/) | a2f {a}gfe | d2(3(B/c/B/) GAB |\
c2A {c}BAG | ~A2B c2d | ~efg fed | ~e2A A2 :|


